icon-svg/9-now.svg

<svg xmlns="http://www.w3.org/2000/svg" viewBox="0 0 24 24"><path fill="#44739e" d="M5.883 9.88a.578.578 0 1 0 .578.578.577.577 0 0 0-.578-.578m.003 1.547a.578.578 0 1 0 .575.578.58.58 0 0 0-.575-.578m.007 1.552a.577.577 0 1 0 .564.577.563.563 0 0 0-.564-.577m9.934-3.112a1.565 1.565 0 1 0 1.564 1.564 1.565 1.565 0 0 0-1.564-1.564m0 2.351a.787.787 0 1 1 .787-.787.79.79 0 0 1-.787.787m-4.767-2.202a.5.5 0 0 0-.348-.139H7.419a.4.4 0 0 0-.11.013.46.46 0 0 0-.265.171.48.48 0 0 0-.1.306v1.638a.6.6 0 0 0 .022.148.44.44 0 0 0 .307.306.6.6 0 0 0 .187.02h2.719c.035 0 .035 0 .035.042v.606c0 .016-.006.019-.019.019H7.448a.6.6 0 0 0-.149.017.46.46 0 0 0-.255.164.5.5 0 0 0-.113.31.5.5 0 0 0 .02.135.5.5 0 0 0 .164.261.4.4 0 0 0 .268.1h3.309a.6.6 0 0 0 .194-.029.4.4 0 0 0 .232-.177.57.57 0 0 0 .081-.3v-3.226a.5.5 0 0 0-.017-.171.44.44 0 0 0-.122-.214m-.836 1.515a.015.015 0 0 1-.016.016H7.947a.016.016 0 0 1-.016-.016v-.658c0-.01 0-.016.016-.016h2.261a.015.015 0 0 1 .016.016Zm4.113-1.012v-.645h-.755v1.653l-1.058-1.444a.5.5 0 0 0-.409-.209h-.446v3.085h.755v-1.722l1.119 1.519a.51.51 0 0 0 .407.207h.384v-.613a1.72 1.72 0 0 1 0-1.831Zm6.728-.645-.536 2.026-.629-2.026h-.852l-.622 2.026-.535-2.027h-.935s.035.119.093.3a1.74 1.74 0 0 1 .532 1.257 1.7 1.7 0 0 1-.038.361l.125.406c.233.758.546.758.694.758s.464 0 .713-.767l.4-1.265.4 1.271c.245.768.558.768.71.768s.464 0 .7-.758L22 9.877ZM2.588 11.431a.57.57 0 0 0-.587.569.578.578 0 1 0 .587-.567Zm-.01-1.551a.578.578 0 1 0 .578.6.577.577 0 0 0-.578-.6m.007 3.096a.576.576 0 1 0 .571.574.58.58 0 0 0-.571-.574m1.654.003a.576.576 0 1 0 .571.574.574.574 0 0 0-.571-.574m-.003-3.096a.576.576 0 1 0 .574.578.576.576 0 0 0-.574-.578m.571 2.125a.576.576 0 1 0-.584.577.575.575 0 0 0 .584-.577"/></svg>

<?xml version="1.0" encoding="UTF-8"?>
<svg width="24px" fill="#44739e" height="24px" viewBox="0 0 24 24" version="1.1" xmlns="http://www.w3.org/2000/svg" xmlns:xlink="http://www.w3.org/1999/xlink">
            <path d="M 5.883,9.879 A 0.578,0.578 0 1 0 6.461,10.457 0.577,0.577 0 0 0 5.883,9.879 Z m 0.003,1.548 a 0.578,0.578 0 1 0 0.575,0.578 0.578,0.578 0 0 0 -0.575,-0.578 z m 0.007,1.552 a 0.577,0.577 0 1 0 0.564,0.577 0.563,0.563 0 0 0 -0.564,-0.577 z m 9.934,-3.113 a 1.565,1.565 0 1 0 1.564,1.565 1.565,1.565 0 0 0 -1.564,-1.565 z m 0,2.352 a 0.787,0.787 0 1 1 0.787,-0.787 0.788,0.788 0 0 1 -0.787,0.787 z M 11.06,10.015 A 0.486,0.486 0 0 0 10.712,9.876 H 7.419 a 0.423,0.423 0 0 0 -0.11,0.013 0.462,0.462 0 0 0 -0.265,0.171 0.481,0.481 0 0 0 -0.1,0.306 v 1.639 a 0.624,0.624 0 0 0 0.022,0.148 0.439,0.439 0 0 0 0.307,0.306 0.635,0.635 0 0 0 0.187,0.02 h 2.719 c 0.035,0 0.035,0 0.035,0.042 v 0.606 c 0,0.016 -0.006,0.019 -0.019,0.019 H 7.448 a 0.568,0.568 0 0 0 -0.149,0.017 0.46,0.46 0 0 0 -0.255,0.164 0.507,0.507 0 0 0 -0.113,0.31 0.485,0.485 0 0 0 0.02,0.135 0.51,0.51 0 0 0 0.164,0.261 0.408,0.408 0 0 0 0.268,0.1 h 3.309 a 0.557,0.557 0 0 0 0.194,-0.029 0.413,0.413 0 0 0 0.232,-0.177 0.572,0.572 0 0 0 0.081,-0.3 V 10.4 A 0.458,0.458 0 0 0 11.182,10.229 0.444,0.444 0 0 0 11.06,10.015 Z m -0.836,1.516 a 0.015,0.015 0 0 1 -0.016,0.016 H 7.947 A 0.016,0.016 0 0 1 7.931,11.531 v -0.658 c 0,-0.01 0,-0.016 0.016,-0.016 h 2.261 a 0.015,0.015 0 0 1 0.016,0.016 z m 4.113,-1.013 V 9.873 h -0.755 v 1.654 L 12.524,10.082 A 0.507,0.507 0 0 0 12.115,9.873 h -0.446 v 3.086 h 0.755 v -1.722 l 1.119,1.519 a 0.514,0.514 0 0 0 0.407,0.207 h 0.384 V 12.35 a 1.724,1.724 0 0 1 0,-1.832 z M 21.065,9.873 20.529,11.9 19.9,9.873 H 19.048 L 18.426,11.9 17.891,9.872 h -0.935 c 0,0 0.035,0.119 0.093,0.3 a 1.739,1.739 0 0 1 0.532,1.258 1.679,1.679 0 0 1 -0.038,0.361 c 0.074,0.242 0.125,0.406 0.125,0.406 0.233,0.758 0.546,0.758 0.694,0.758 0.148,0 0.464,0 0.713,-0.767 l 0.4,-1.265 0.4,1.271 c 0.245,0.768 0.558,0.768 0.71,0.768 0.152,0 0.464,0 0.7,-0.758 L 22,9.876 Z M 2.587,11.431 A 0.571,0.571 0 0 0 2,12 0.578,0.578 0 1 0 2.587,11.433 Z M 2.577,9.879 a 0.578,0.578 0 1 0 0.578,0.6 0.577,0.577 0 0 0 -0.578,-0.6 z m 0.007,3.097 A 0.576,0.576 0 1 0 3.155,13.55 0.578,0.578 0 0 0 2.584,12.976 Z m 1.654,0.003 A 0.576,0.576 0 1 0 4.809,13.553 0.574,0.574 0 0 0 4.238,12.979 Z M 4.235,9.882 A 0.576,0.576 0 1 0 4.809,10.46 0.576,0.576 0 0 0 4.235,9.882 Z m 0.571,2.126 a 0.576,0.576 0 1 0 -0.584,0.577 0.575,0.575 0 0 0 0.584,-0.577 z"/>

</svg>
